static/assets/img/icons/theme/devices/router-1.svg

<svg height="24" viewBox="0 0 24 24" width="24" xmlns="http://www.w3.org/2000/svg"><g fill="none" fill-rule="evenodd"><path d="m0 0h24v24h-24z" opacity="0"/><g fill="#000"><path d="m15 15v-5c0-.55228475.4477153-1 1-1s1 .44771525 1 1v5h3c1.1045695 0 2 .8954305 2 2v2c0 1.1045695-.8954305 2-2 2h-16c-1.1045695 0-2-.8954305-2-2v-2c0-1.1045695.8954305-2 2-2zm-10 2c-.55228475 0-1 .4477153-1 1s.44771525 1 1 1h5c.5522847 0 1-.4477153 1-1s-.4477153-1-1-1z"/><path d="m20.5 7.7155722-1.2866696 1.14157066c-.7879844-1.02817003-1.956339-1.63421349-3.2185759-1.63421349-1.2581047 0-2.4230125.60204461-3.2110691 1.6244465l-1.2836854-1.14545344c1.1016042-1.42918952 2.7349886-2.273351 4.4947545-2.273351 1.7655578 0 3.4037464.84975359 4.5052455 2.28700077zm3-2.25504158-1.3637127 1.11089795c-1.5068213-1.78196948-3.7350807-2.83198281-6.1399828-2.83198281-2.4015774 0-4.6270653 1.04708841-6.1339293 2.82483253l-1.3623752-1.11247776c1.840077-2.17085677 4.5626024-3.45180053 7.4963045-3.45180053 2.9377685 0 5.6636726 1.28451636 7.5036955 3.46053062z" fill-rule="nonzero" opacity=".3"/></g></g></svg>

<svg width="24px" height="24px" viewBox="0 0 24 24" version="1.1" xmlns="http://www.w3.org/2000/svg" xmlns:xlink="http://www.w3.org/1999/xlink">
    <title>Icon For Router#1</title>
    <g stroke="none" stroke-width="1" fill="none" fill-rule="evenodd">
        <rect opacity="0" x="0" y="0" width="24" height="24"></rect>
        <path d="M15,15 L15,10 C15,9.44771525 15.4477153,9 16,9 C16.5522847,9 17,9.44771525 17,10 L17,15 L20,15 C21.1045695,15 22,15.8954305 22,17 L22,19 C22,20.1045695 21.1045695,21 20,21 L4,21 C2.8954305,21 2,20.1045695 2,19 L2,17 C2,15.8954305 2.8954305,15 4,15 L15,15 Z M5,17 C4.44771525,17 4,17.4477153 4,18 C4,18.5522847 4.44771525,19 5,19 L10,19 C10.5522847,19 11,18.5522847 11,18 C11,17.4477153 10.5522847,17 10,17 L5,17 Z" fill="#000000"></path>
        <path d="M20.5,7.7155722 L19.2133304,8.85714286 C18.425346,7.82897283 17.2569914,7.22292937 15.9947545,7.22292937 C14.7366498,7.22292937 13.571742,7.82497398 12.7836854,8.84737587 L11.5,7.70192243 C12.6016042,6.27273291 14.2349886,5.42857143 15.9947545,5.42857143 C17.7603123,5.42857143 19.3985009,6.27832502 20.5,7.7155722 Z M23.5,5.46053062 L22.1362873,6.57142857 C20.629466,4.78945909 18.4012066,3.73944576 15.9963045,3.73944576 C13.5947271,3.73944576 11.3692392,4.78653417 9.8623752,6.56427829 L8.5,5.45180053 C10.340077,3.28094376 13.0626024,2 15.9963045,2 C18.934073,2 21.6599771,3.28451636 23.5,5.46053062 Z" fill="#000000" fill-rule="nonzero" opacity="0.3"></path>
    </g>
</svg>
